src/main/resources/icons/RubyIcons/icons/rake/undocumented_task.svg

<svg xmlns="http://www.w3.org/2000/svg" xmlns:xlink="http://www.w3.org/1999/xlink" width="16" height="16" viewBox="0 0 16 16">
  <defs>
    <path id="undocumented_task-a" d="M13.5,10 C13.2238576,10 13,10.3118017 13,10.6964286 L13,13.3035714 C13,13.6881983 13.2238576,14 13.5,14 C13.7761424,14 14,13.6881983 14,13.3035714 L14,10.6964286 C14,10.3118017 13.7761424,10 13.5,10 Z M13.5,9 C14.3284271,9 15,9.67157288 15,10.5 L15,13 C15,13.8284271 14.3284271,14.5 13.5,14.5 C12.6715729,14.5 12,13.8284271 12,13 L12,10.5 C12,9.67157288 12.6715729,9 13.5,9 Z"/>
  </defs>
  <g fill="none" fill-rule="evenodd">
    <path fill="#9AA7B0" fill-opacity=".8" d="M11.5,2 L13.5,2 C13.771,2 14,2.229 14,2.5 C14,2.771 13.771,3 13.5,3 L11.5,3 C11.229,3 11,2.771 11,2.5 C11,2.229 11.229,2 11.5,2 Z M11.0008763,10 C11.0009588,10.3433127 11.001,10.6766461 11.001,11 L10,11 L10,13 L10,15 L9,15 L9,13 L8,13 L8,15 L7,15 L7,13 L6,13 L6,15 L5,15 L5,13 L4,13 L4.0021,15 L3,15 L3,13 L2,13 L2,15 L1,15 L1,13 L1,11 C1,10.45 1.45,10 2,10 L6.504,10 L11.083,3.934 C10.461,3.75 10,3.18 10,2.5 C10,1.675 10.675,1 11.5,1 L13.5,1 C14.325,1 15,1.675 15,2.5 C15,3.325 14.325,4 13.5,4 L12.968,4 L8.334,10 L11.0008763,10 Z"/>
    <rect width="5" height="4" x="11" y="12" fill="#40B6E0"/>
    <use fill="#40B6E0" xlink:href="#undocumented_task-a"/>
  </g>
</svg>

<svg xmlns="http://www.w3.org/2000/svg" xmlns:xlink="http://www.w3.org/1999/xlink" width="16" height="16" viewBox="0 0 16 16"><rect id="frame" width="16" height="16" fill="none"/><defs><path id="a" d="M13.5 10c-.276 0-.5.312-.5.696v2.608c0 .384.224.696.5.696s.5-.312.5-.696v-2.608c0-.384-.224-.696-.5-.696zm0-1a1.5 1.5 0 0 1 1.5 1.5V13a1.5 1.5 0 0 1-3 0v-2.5A1.5 1.5 0 0 1 13.5 9z"/></defs><g fill="none" fill-rule="evenodd"><path fill="#9AA7B0" fill-opacity=".8" d="M11.5 2h2c.271 0 .5.229.5.5s-.229.5-.5.5h-2a.507.507 0 0 1-.5-.5c0-.271.229-.5.5-.5zm-.5 8l.001 1H10v4H9v-2H8v2H7v-2H6v2H5v-2H4l.002 2H3v-2H2v2H1v-4c0-.55.45-1 1-1h4.504l4.579-6.066A1.503 1.503 0 0 1 10 2.5c0-.825.675-1.5 1.5-1.5h2c.825 0 1.5.675 1.5 1.5S14.325 4 13.5 4h-.532l-4.634 6h2.667z"/><path fill="#40B6E0" d="M11 12h5v4h-5z"/><use fill="#40B6E0" xlink:href="#a"/></g></svg>
